X:14608
T:Roy Stuarts Reel. JB.40
M:4/4
L:1/8
Q:180
S:James Biggins MS, Leeds, 1779.
R:Reel
O:England
A:Yorkshire
Z:
Z:vmp.Nick Barber & Chris Partingto
K:F
c|AF2Ac2d/c/B/A/|BG2A BGGd|AF2F cdcB|AFFc AFF:|!
|e|f>gaf gfaf|gdd^f gdde|=f>gaf gfaf|fdcB AF2e|!
f>gaf gfaf|gdd^f gddg|a/g/f g/f/e f/e/d d/c/A|FAfc AFF2:|]


